X: 13862
T: Fox And The Cedar, The
R: jig
M: 6/8
K: Bminor
|:dcB FBB|EBB DAA|dcB FBB|dfa gfe|dcB FBB|EBB DAA|EAc ece|dBB B3:|
|:FAA EAA|DAA DEF|GBB FBB|EBB EFG|ABc ece|Bcd fdf|Ace Ace|dBB B3:|
|:b2 f fdB|b2 f fdB|b2 g gdB|b2 g gdB|a2 f fcA|a2 f fdA|1 a2 e ecA|a2 e efg:|2 Ace Ace|dBB B3|

